X: 3
T: Old Crossroads, The
Z: Jürgen
S: https://thesession.org/tunes/3659#setting22560
R: barndance
M: 4/4
L: 1/8
K: Ador
AG|E2A2 ABcd|e2a2 ge zd|c>Bce dBGA|B2A2 GEED|\
E2A2 ABcd|e2a2 ge zd|c>Bce dBGA|BAAG A2:|
|:ag|e2a2 ~a2ga|b2a2 ge zg|d>^cde g>fga|gede g2ag|\
e2a2 ~a2ga|b2a2 ge zd|c>Bce dBGA|BAAG A2:|
